X:1
T:Es Ist ein’ Ros, 76.76.676
T:15th Century German
T:Es Ist ein’ Ros, 76.76.676
T:Public Domain
C:15th Century German
Z:Public Domain
%%score ( 1 2 ) ( 3 4 )
L:1/8
M:none
K:F
V:1 treble 
V:2 treble 
V:3 bass 
V:4 bass 
V:1
 [Fc]4 [Fc]2 [Fc]2 [Fd]2 [Fc]2 | [Ec]4 [DA]4 [DB]4 | (A2 G4) D2 A,2 C4 E2 [CF]4 [Ac]4 | %3
 [Ac]2 [Fc]2 [Fd]2 [Fc]2 | [Ec]4 [DA]4 [DB]4 | A2 G4 D2 A,2 C4 E2 [CF]6 [FA]2 | %6
 [DG]2 [CE]2 [CF]2 [=B,D]2 | C6 [Ec]2 | [Gc]2 [Fc]2 [Fd]2 [Fc]2 | [Ec]4 [DA]4 [DB]4 | %10
 [FA]2 D2 [CF]4 [CE]2 | [CF]8 |] %12
V:2
 x12 | x12 | C4 x2 F4 x14 | x8 | x12 | C4 x2 F4 x14 | x8 | C6 x2 | x8 | x12 | x2 G2 x6 | x8 |] %12
V:3
 [F,A,]4 [F,A,]2 [F,A,]2 B,2 [F,A,]2 | [C,G,]4 [D,F,]4 [B,,F,]4 | %2
 ([F,A,]2 [E,C]2 B,2) A,4 C,4 G,2 [F,A,]4 [F,C]4 | [F,C]2 [F,A,]2 B,2 [F,A,]2 | %4
 [C,G,]4 [D,F,]4 [B,,F,]4 | [F,A,]2 [E,C]2 B,2 A,4 C,4 G,2 [F,A,]6 [A,C]2 | %6
 [G,B,]2 A,2 [F,A,]2 G,2 | ([C,E,][D,F,] [E,G,]4) [C,G,]2 | [E,G,]2 [F,A,]2 [B,,B,]2 [F,A,]2 | %9
 [C,G,]4 [D,^F,]4 [G,,G,]4 | [A,,C]2 [B,,B,]2 [C,A,]4 [C,G,]2 | [F,A,]8 |] %12
V:4
 x8 B,2 x2 | x12 | x4 D,4 x16 | x8 | x12 | x4 D,4 x16 | x8 | x8 | x8 | x12 | x10 | x8 |] %12

